azure-docs/api_recommendations.svg

<?xml version="1.0" encoding="UTF-8"?>
<svg width="512px" height="512px" viewBox="0 0 512 512" version="1.1" xmlns="http://www.w3.org/2000/svg" xmlns:xlink="http://www.w3.org/1999/xlink">
    <!-- Generator: Sketch 46.2 (44496) - http://www.bohemiancoding.com/sketch -->
    <title>recommendations-wht-bluBG-512p</title>
    <desc>Created with Sketch.</desc>
    <defs></defs>
    <g id="PRODUCTION-ICONS" stroke="none" stroke-width="1" fill="none" fill-rule="evenodd">
        <g id="recommendations-wht-bluBG-512p">
            <g id="Recommendations-API">
                <rect id="Rectangle-3-Copy-22" fill="#0063B1" x="0" y="0" width="512" height="512"></rect>
                <path d="M119.466667,119.464391 L119.466667,347.025636 L204.8,347.025636 L256,403.908836 L307.194311,347.025636 L392.533333,347.025636 L392.533333,119.464391 L119.466667,119.464391 Z M142.222222,142.219947 L369.777778,142.219947 L369.777778,324.264391 L307.194311,324.264391 L297.0624,324.264391 L290.286933,331.802169 L256,369.894969 L221.718756,331.802169 L214.931911,324.264391 L204.8,324.264391 L142.222222,324.264391 L142.222222,142.219947 Z" id="Fill-1" fill="#FFFFFF"></path>
                <polygon id="Fill-2" fill="#FFFFFF" points="256 187.62752 267.411911 222.762098 304.355556 222.762098 274.477511 244.476587 285.895111 279.611164 256 257.896676 226.104889 279.611164 237.522489 244.476587 207.644444 222.762098 244.588089 222.762098"></polygon>
            </g>
        </g>
    </g>
</svg>

<svg width="512" height="512" xmlns="http://www.w3.org/2000/svg"><g fill="none" fill-rule="evenodd"><path fill="#0063B1" d="M0 0h512v512H0z"/><path d="M119.467 119.464v227.562H204.8l51.2 56.883 51.194-56.883h85.34V119.464H119.466zm22.755 22.756h227.556v182.044H297.062l-6.775 7.538L256 369.895l-34.281-38.093-6.787-7.538H142.222V142.22z" fill="#FFF"/><path fill="#FFF" d="M256 187.628l11.412 35.134h36.944l-29.878 21.715 11.417 35.134L256 257.897l-29.895 21.714 11.417-35.134-29.878-21.715h36.944z"/></g></svg>
